!!!OTL: Der Brautmoerder
!!!ARE: Europa, Mitteleuropa, Deutschland
!!!SCT: A0014
!!!YEM: Copyright 1995, estate of Helmut Schaffrath.
**kern
*ICvox
*Ivox
*M4/4
*k[f#]
*e:
{8B
8B
8B
=1
4.e
8f#
4gn
4f#
=2
2e
8r}
{8b
8b
8b
=3
4.a
8a
4b
4a
=4
2gn
8r}
{8ddn
8ddn
8ddn
=5
4.gn
8gn
4ccn
4b
=6
2a
8r}
{8dn
8dn
8dn
=7
8gn
8a
8b
8a
4gn
4f#
=8
2e
8r}
==
!!!AGN: Romanze, Ballade, Lied
!!!ONB: ESAC (Essen Associative Code) Database: ALTDEU
!!!AMT: simple quadruple
!!!AIN: vox
!!!EED: Helmut Schaffrath
!!!EEV: 1.0
*-
